!!!COM: Music21
!!!OTL: strathspey_Am-Bùachaille-Dubh-Fionnghual
!!!OMV: strathspey_Am-Bùachaille-Dubh-Fionnghual
**kern
*clefG2
*k[f#c#g#d#]
*M4/4
=1
4b
8bL
8gg#J
16ff#KL
8.ff#J
8ff#L
8gg#J
=
16ff#KL
8.ff#J
8bL
8bJ
8bL
8dd#J
4cc#
=
4b
8bL
8gg#J
16ff#KL
8.ff#J
8ff#L
8gg#J
=
16ff#KL
8.ff#J
8cc#L
8dd#J
8cc#L
8bJ
4b
!!linebreak:original
=||
*M4/4
4b
8bL
8gg#J
16ff#KL
8.ff#J
8ff#L
8gg#J
=
16ff#KL
8.ff#J
8bL
8bJ
8bL
8dd#J
4cc#
=
4b
8bL
8gg#J
16ff#KL
8.ff#J
8ff#L
8gg#J
=
16ff#KL
8.ff#J
8cc#L
8dd#J
8cc#L
8bJ
4b
=||
16ff#KL
8.ff#J
8bL
8bJ
4dd#
8cc#L
8dd#J
!!linebreak:original
=
16ff#KL
8.ff#J
8bL
8bJ
8bL
8dd#J
4dd#
=
16ff#KL
8.ff#J
8bL
8bJ
4dd#
8cc#L
8dd#J
=
16ff#KL
8.ff#J
8cc#L
8dd#J
8cc#L
8bJ
4b
=
16ff#KL
8.ff#J
8bL
8bJ
4dd#
8cc#L
8dd#J
=
16ff#KL
8.ff#J
8bL
8bJ
8bL
8dd#J
4cc#
!!linebreak:original
=
4b
8bL
8gg#J
16ff#KL
8.ff#J
8ff#L
8gg#J
=
16ff#KL
8.ff#J
8cc#L
8dd#J
8cc#L
8bJ
4b
=||
*-
